**harm	**harte	**timestamp	**phrase	**leadinstrument	**kern
*M4/4	*M4/4	*	*	*	*
*D-:	*D-:	*	*	*	*D-:
1r;	N	0	.	r	1r;
=1	=1	=1	=1	=1	=1
*>A_intro	*>A_intro	*>A_intro	*>A_intro	*>A_intro	*>A_intro
1I	D-:maj	1.132	newline	piano	1D- 1f 1a-
=2	=2	=2	=2	=2	=2
1V7	A-:7	3.99	.	piano	1A- 1cc 1ee- 1gg-
=3	=3	=3	=3	=3	=3
1I	D-:maj	6.847	.	piano	1D- 1f 1a-
=4	=4	=4	=4	=4	=4
1V7	A-:7	9.705	.	piano	1A- 1cc 1ee- 1gg-
=5	=5	=5	=5	=5	=5
*>B_verse	*>B_verse	*>B_verse	*>B_verse	*>B_verse	*>B_verse
1I	D-:maj	12.562	newline	voice	1D- 1f 1a-
=6	=6	=6	=6	=6	=6
1I	D-:maj	15.417	.	voice	1D- 1f 1a-
=7	=7	=7	=7	=7	=7
1V7	A-:7	18.271	.	voice	1A- 1cc 1ee- 1gg-
=8	=8	=8	=8	=8	=8
1V7	A-:7	21.126	.	voice	1A- 1cc 1ee- 1gg-
=9	=9	=9	=9	=9	=9
1V7	A-:7	23.98	newline	voice	1A- 1cc 1ee- 1gg-
=10	=10	=10	=10	=10	=10
1V7	A-:7	26.816	.	voice	1A- 1cc 1ee- 1gg-
=11	=11	=11	=11	=11	=11
1I	D-:maj	29.652	.	voice	1D- 1f 1a-
=12	=12	=12	=12	=12	=12
1I	D-:maj	32.487	.	voice	1D- 1f 1a-
=13	=13	=13	=13	=13	=13
1I	D-:maj	35.323	newline	voice	1D- 1f 1a-
=14	=14	=14	=14	=14	=14
1I	D-:maj	38.143	.	voice	1D- 1f 1a-
=15	=15	=15	=15	=15	=15
1Im7	D-:7	40.963	.	voice	1D- 1f 1a- 1cc
=16	=16	=16	=16	=16	=16
1IV	G-:maj	43.783	.	voice	1G- 1b- 1dd-
=17	=17	=17	=17	=17	=17
2ii7	E-:min7	46.602	newline	voice	2E- 2g- 2b- 2dd-
2V7	A-:7	48.005	.	voice	2A- 2cc 2ee- 2gg-
=18	=18	=18	=18	=18	=18
2ii7	E-:min7	49.407	.	voice	2E- 2g- 2b- 2dd-
2V7	A-:7	50.809	.	voice	2A- 2cc 2ee- 2gg-
=19	=19	=19	=19	=19	=19
2viio	C:dim	52.211	.	voice	2C 2e- 2g-
2I	D-:maj	53.613	.	voice	2D- 2f 2a-
=20	=20	=20	=20	=20	=20
*D:	*D:	*	*	*	*D:
1V7	A:7	55.016	.	voice	1A 1cc# 1ee 1gg
=21	=21	=21	=21	=21	=21
*>B_verse	*>B_verse	*>B_verse	*>B_verse	*>B_verse	*>B_verse
1I	D:maj	57.82	newline	voice	1D 1f# 1a
=22	=22	=22	=22	=22	=22
1I	D:maj	60.636	.	voice	1D 1f# 1a
=23	=23	=23	=23	=23	=23
1V7	A:7	63.453	.	voice	1A 1cc# 1ee 1gg
=24	=24	=24	=24	=24	=24
1V7	A:7	66.269	.	voice	1A 1cc# 1ee 1gg
=25	=25	=25	=25	=25	=25
1V7	A:7	69.085	newline	voice	1A 1cc# 1ee 1gg
=26	=26	=26	=26	=26	=26
1V7	A:7	71.917	.	voice	1A 1cc# 1ee 1gg
=27	=27	=27	=27	=27	=27
1I	D:maj	74.748	.	voice	1D 1f# 1a
=28	=28	=28	=28	=28	=28
1I	D:maj	77.579	.	voice	1D 1f# 1a
=29	=29	=29	=29	=29	=29
1I	D:maj	80.41	newline	voice	1D 1f# 1a
=30	=30	=30	=30	=30	=30
1I	D:maj	83.255	.	voice	1D 1f# 1a
=31	=31	=31	=31	=31	=31
1Im7	D:7	86.099	.	voice	1D 1f# 1a 1cc#
=32	=32	=32	=32	=32	=32
1IV	G:maj	88.944	.	voice	1G 1b 1dd
=33	=33	=33	=33	=33	=33
2ii7	E:min7	91.788	newline	voice	2E 2g 2b 2dd
2V7	A:7	93.185	.	voice	2A 2cc# 2ee 2gg
=34	=34	=34	=34	=34	=34
2ii7	E:min7	94.581	.	voice	2E 2g 2b 2dd
2V7	A:7	95.977	.	voice	2A 2cc# 2ee 2gg
=35	=35	=35	=35	=35	=35
2viio	C#:dim	97.373	.	voice	2C# 2e 2g
2I	D:maj	98.769	.	voice	2D 2f# 2a
=36	=36	=36	=36	=36	=36
*E-:	*E-:	*	*	*	*E-:
1V7	B-:7	100.165	.	voice	1B- 1dd 1ff 1aa-
=37	=37	=37	=37	=37	=37
*>B_verse	*>B_verse	*>B_verse	*>B_verse	*>B_verse	*>B_verse
1I	E-:maj	102.957	newline	voice	1E- 1g 1b-
=38	=38	=38	=38	=38	=38
1I	E-:maj	105.802	.	voice	1E- 1g 1b-
=39	=39	=39	=39	=39	=39
1V7	B-:7	108.647	.	voice	1B- 1dd 1ff 1aa-
=40	=40	=40	=40	=40	=40
1V7	B-:7	111.492	.	voice	1B- 1dd 1ff 1aa-
=41	=41	=41	=41	=41	=41
1V7	B-:7	114.337	newline	voice	1B- 1dd 1ff 1aa-
=42	=42	=42	=42	=42	=42
1V7	B-:7	117.176	.	voice	1B- 1dd 1ff 1aa-
=43	=43	=43	=43	=43	=43
1I	E-:maj	120.014	.	voice	1E- 1g 1b-
=44	=44	=44	=44	=44	=44
1I	E-:maj	122.853	.	voice	1E- 1g 1b-
=45	=45	=45	=45	=45	=45
1I	E-:maj	125.691	newline	voice	1E- 1g 1b-
=46	=46	=46	=46	=46	=46
1I	E-:maj	128.436	.	voice	1E- 1g 1b-
=47	=47	=47	=47	=47	=47
1Im7	E-:7	131.182	.	voice	1E- 1g 1b- 1dd
=48	=48	=48	=48	=48	=48
1IV	A-:maj	133.927	.	voice	1A- 1cc 1ee-
=49	=49	=49	=49	=49	=49
1V7	B-:7	136.673	newline	voice	1B- 1dd 1ff 1aa-
=50	=50	=50	=50	=50	=50
1V7	B-:7	139.424	.	voice	1B- 1dd 1ff 1aa-
=51	=51	=51	=51	=51	=51
2viio	D:dim	142.176	.	voice	2D 2f 2a-
2I	E-:maj	143.552	.	voice	2E- 2g 2b-
=52	=52	=52	=52	=52	=52
1I	E-:maj	144.927	.	voice	1E- 1g 1b-
=53	=53	=53	=53	=53	=53
*>A_coda	*>A_coda	*>A_coda	*>A_coda	*>A_coda	*>A_coda
1I	E-:maj	147.679	newline	piano	1E- 1g 1b-
=54	=54	=54	=54	=54	=54
1I	E-:maj	150.372	.	piano	1E- 1g 1b-
1r;	N	153.066	.	r	1r;
1r;	N	157.675	.	r	1r;
*-	*-	*-	*-	*-	*-
!!!OTL: As Usual
!!!COC: Brenda Lee
!!!BillboardChartDate: 1964/02/15, 1964/01/04
!!!BillboardPeak: 12, 12
!!!BillboardWeeksOnChart: 11, 11
!!!SampleTargetRank: 32, 15
!!!SampleActualRank: 34, 14
!!!SampleID#: 288, 471
!!!RDF**harmony: **recip + pitch class of root + harmonic quality
!!!RDF**harte: Chris Harte's syntax, used by MIREX
!!!RDF**phrase: newline = linebreak in original McGill transcription
!!!RDF**timestamp: McGill audio timestamp in seconds
!!!RDF**leadinstrument: original McGill primary instrumentation annotation
!!!RDT: 2017/01/12/
!!!ENC: Nathaniel Condit-Schultz
!!!EST: Awating manual error checking and editing.
